X:1
T:Wanderlied
T:Wanderlied
T:Karl maria von Weber
C:Karl maria von Weber
%%score [ 1 2 3 4 ]
L:1/8
Q:1/4=90
M:3/4
K:Eb
V:1 treble-8 nm="Tenor I"
V:2 treble-8 nm="Tenor II"
V:3 bass nm="Bass I"
V:4 bass nm="Bass II"
V:1
!f!"^1." B | !^!g3 f ed/"^'"e/ | !^!fb!pp! !fermata!a7/2"^'" e/ | %3
w: Die|Tha- le damp- fen die|Hö- hen glüh'n! die|
w: Es|strah- let gol- den der|Son- ne Licht, der|
"^Echo" !^!fb !fermata!g3"^'"!f! B | !^!g3 f ed/e/ | !^!fb a7/2!pp!"^'""^Echo" e/ | %6
w: Hö- hen glüh'n! Welch|fröh- lich Ja- gen im|Wal- des Grün! im|
w: Son- ne Licht, Das|Sieg- reich durch die Ge-|bü- sche bricht, Ge-|
 !^!fb"^'" !fermata!g3!f! B | !>!fd !^!B3 B | !>!g>f !^!e3"^'" e | !>!fd !^!B3 B | !>!g>f !^!e3 z | %11
w: Wal- des Grün! Der|Mor- gen weckt zu|fris- cher Lust, hoch|schwillt die Brust des|Sieg's be- wust.|
w: bü- sche bricht. Ich|tötd' den Var auf|Luft'- gem Horst, er-|leg' das Wild im|dich- ten Forst!|
 z6 | z4 z!f! !wedge!G | !>!G!wedge!A/!wedge!B/ !>!c!>!d !>!e!>!f | !^!g4 z!f! B | %15
w: |lasst|schmet- tern die Hör- * ner im|Chor! lasst|
w: ||||
 !>!BB/B/ !>!BB/B/ !>!BB/B/ |!>(! g4-!>)! g"^'"B | !>!BB/B/ !>!BB/B/ !>!BB/B/ | %18
w: schmet- tern die Hör- ner, die Hör- ner im|Chor! * ihr|Für- sten der Wal- dung, der Wal- dung her-|
w: |||
!>(! g4- g!>)!!ff!B | !>!ee/e/ !>!e2 !>!B!>!c | !^!_d4- d"^'"f | !>!ff/f/ !>!f2 b/a/ g/f/ | %22
w: vor! * lasst|schmet- tern die Hör- ner im|Chor! * ihr|Für- sten der Wal- dung * her- *|
w: ||||
 !fermata!e4 !fermata!z :| %23
w: vor!|
w: |
V:2
!f!"^2.""^1." B | !^!e3 d eB/"^'"B/ | !^!dd!pp! !fermata!e7/2"^'" B/ | %3
w: Die|Tha- le damp- fen die|Hö- hen glüh'n! die|
w: Es|strah- let gol- den der|Son- ne Licht, der|
"^Echo" !^!BB !fermata!e3"^'"!f! B | !^!e3 d eB/B/ | !^!dd e7/2!pp!"^'""^Echo" B/ | %6
w: Hö- hen glüh'n! Welch|fröh- lich Ja- gen im|Wal- des Grün! im|
w: Son- ne Licht, Das|Sieg- reich durch die Ge-|bü- sche bricht, Ge-|
 !^!dd"^'" !fermata!e3!f! B | !>!dB !^!B3 B | !>!e>d !^!e3"^'" e | !>!dB !^!B3 B | !>!e>d !^!e3 z | %11
w: Wal- des Grün! Der|Mor- gen weckt zu|fris- cher Lust, hoch|schwillt die Brust des|Sieg's be- wust.|
w: bü- sche bricht. Ich|tötd' den Var auf|Luft'- gem Horst, er-|leg' das Wild im|dich- ten Forst!|
 z6 | z4 z!f! !wedge!G | !>!G!wedge!A/!wedge!B/ !>!c!>!d !>!e!>!f | !^!g4 z!f! B | %15
w: |lasst|schmet- tern die Hör- * ner im|Chor! lasst|
w: ||||
 !>!BB/B/ !>!BB/B/ !>!BB/B/ |!>(! e4-!>)! e"^'"B | !>!BB/B/ !>!BB/B/ !>!BB/B/ | %18
w: schmet- tern die Hör- ner, die Hör- ner im|Chor! * ihr|Für- sten der Wal- dung, der Wal- dung her-|
w: |||
!>(! e4- e!>)!!ff!B | !>!ee/e/ !>!e2 !>!B!>!c | !^!_d4- d"^'"d | !>!cc/c/ !>!d2 dd | %22
w: vor! * lasst|schmet- tern die Hör- ner im|Chor! * ihr|Für- sten der Wal- dung her-|
w: ||||
 !fermata!e4 !fermata!z :| %23
w: vor!|
w: |
V:3
!f!"^2.""^1." B, | !^!B,3 A, G,F,/"^'"G,/ | !^!B,B,!pp! !fermata!B,7/2"^'" G,/ | %3
w: Die|Tha- le damp- fen die|Hö- hen glüh'n! die|
w: Es|strah- let gol- den der|Son- ne Licht, der|
"^Echo" !^!B,B, !fermata!B,3"^'"!f! B, | !^!B,3 A, G,F,/G,/ | !^!B,B, B,7/2!pp!"^'""^Echo" G,/ | %6
w: Hö- hen glüh'n! Welch|fröh- lich Ja- gen im|Wal- des Grün! im|
w: Son- ne Licht, Das|Sieg- reich durch die Ge-|bü- sche bricht, Ge-|
 !^!B,B,"^'" !fermata!B,3!f! B, | !>!B,B, !^!B,3 B, | !>!B,>A, !^!G,3"^'" B, | !>!B,B, !^!B,3 B, | %10
w: Wal- des Grün! Der|Mor- gen weckt zu|fris- cher Lust, hoch|schwillt die Brust des|
w: bü- sche bricht. Ich|tötd' den Var auf|Luft'- gem Horst, er-|leg' das Wild im|
 !>!B,>A, !^!G,3"^'"!f! E, | !>!E,!wedge!F,/"^cresc."!wedge!G,/ !>!A,!>!B, C!>!D | %12
w: Sieg's be- wust. Dringt|mu- tig durch Schluch- * ten und|
w: dich- ten Forst! Wohl-|auf denn, durch Schluch- * ten und|
 !^!E4 z!f! !wedge!E, | !>!E,!wedge!F,/!wedge!G,/ !>!A,!>!B, !>!C!>!D | !^!E4 z!f! B, | %15
w: Moor, lasst|schmet- tern die Hör- * ner im|Chor! lasst|
w: Moor, *|||
 !>!B,B,/B,/ !>!B,B,/B,/ !>!B,B,/B,/ |!>(! B,4-!>)! B,"^'"B, | %17
w: schmet- tern die Hör- ner, die Hör- ner im|Chor! * ihr|
w: ||
 !>!B,B,/B,/ !>!B,B,/B,/ !>!B,B,/B,/ |!>(! B,4- B,!>)!!ff!B, | !>!EE/E/ !>!E2 !>!B,!>!C | %20
w: Für- sten der Wal- dung, der Wal- dung her-|vor! * lasst|schmet- tern die Hör- ner im|
w: |||
 !^!_D4- D"^'"B, | !>!=A,A,/A,/ !>!_A,2 A,A, | !fermata!G,4 !fermata!z :| %23
w: Chor! * ihr|Für- sten der Wal- dung her-|vor!|
w: |||
V:4
!f!"^2.""^1.""^2." B, | !^!E,3 B,, E,E,/"^'"E,/ | !^!B,,B,,!pp! !fermata!E,7/2"^'" E,/ | %3
w: Die|Tha- le damp- fen die|Hö- hen glüh'n! die|
w: Es|strah- let gol- den der|Son- ne Licht, der|
"^Echo" !^!B,,B,, !fermata!E,3"^'"!f! B, | !^!E,3 B,, E,E,/E,/ | %5
w: Hö- hen glüh'n! Welch|fröh- lich Ja- gen im|
w: Son- ne Licht, Das|Sieg- reich durch die Ge-|
 !^!B,,B,, E,7/2!pp!"^'""^Echo" E,/ | !^!B,,B,,"^'" !fermata!E,3!f! B, | !>!B,,B, !^!B,3 B, | %8
w: Wal- des Grün! im|Wal- des Grün! Der|Mor- gen weckt zu|
w: bü- sche bricht, Ge-|bü- sche bricht. Ich|tötd' den Var auf|
 !>!E,>E, !^!E,3"^'" G, | !>!B,B, !^!B,3 B, | !>!E,>E, !^!E,3"^'"!f! E, | %11
w: fris- cher Lust, hoch|schwillt die Brust des|Sieg's be- wust. Dringt|
w: Luft'- gem Horst, er-|leg' das Wild im|dich- ten Forst! Wohl-|
 !>!E,!wedge!F,/"^cresc."!wedge!G,/ !>!A,!>!B, C!>!D | !^!E4 z!f! !wedge!E, | %13
w: mu- tig durch Schluch- * ten und|Moor, lasst|
w: auf denn, durch Schluch- * ten und|Moor, *|
 !>!E,!wedge!F,/!wedge!G,/ !>!A,!>!B, !>!C!>!D | !^!E4 z!f! B, | %15
w: schmet- tern die Hör- * ner im|Chor! lasst|
w: ||
 !>!B,B,/B,/ !>!B,B,/B,/ !>!B,B,/B,/ |!>(! E,4-!>)! E,"^'"B, | %17
w: schmet- tern die Hör- ner, die Hör- ner im|Chor! * ihr|
w: ||
 !>!B,B,/B,/ !>!B,B,/B,/ !>!B,B,/B,/ |!>(! E,4-!>)! E,!ff!B, | !>!EE/E/ !>!E2 !>!B,!>!C | %20
w: Für- sten der Wal- dung, der Wal- dung her-|vor! * lasst|schmet- tern die Hör- ner im|
w: |||
 !^!_D4- D"^'"B, | !>!=A,A,/A,/ !>!B,,2 B,,B,, | !fermata!E,4 !fermata!z :| %23
w: Chor! * ihr|Für- sten der Wal- dung her-|vor!|
w: |||

